packages/core/src/svgs/mplx.svg

<svg width="24" height="24" viewBox="0 0 24 24" fill="none" xmlns="http://www.w3.org/2000/svg">
<g clip-path="url(#clip0_31_14276)">
<path d="M0 0H24V24H0V0Z" fill="url(#paint0_linear_31_14276)"/>
<path d="M12.5571 14.0741C12.5908 14.0229 12.6099 13.9635 12.6121 13.9023C12.6144 13.8411 12.5998 13.7804 12.5699 13.7269L8.78994 7.01551C8.76494 6.96869 8.72796 6.92935 8.68278 6.90149C8.63761 6.87363 8.58585 6.85826 8.5328 6.85694H5.87565C5.63994 6.85694 5.49423 7.12694 5.61423 7.34122L10.5771 16.2812C10.6928 16.4827 10.9628 16.4955 11.0914 16.3027L12.5571 14.0741ZM19.4142 16.7141C19.6457 16.7141 19.7914 16.4441 19.6714 16.2341L14.5714 7.01551C14.5457 6.96743 14.5073 6.92726 14.4605 6.89932C14.4137 6.87138 14.3602 6.85673 14.3057 6.85694H11.6571C11.4257 6.85694 11.2799 7.12694 11.3999 7.34122L16.5171 16.5555C16.5421 16.6023 16.5791 16.6417 16.6242 16.6695C16.6694 16.6974 16.7212 16.7128 16.7742 16.7141H19.4142ZM7.97137 16.1441C8.08708 16.3584 7.94137 16.7141 7.70565 16.7141H5.88851C5.71708 16.7141 5.57137 16.4827 5.57137 16.3069V13.0712C5.57137 12.7455 5.99137 12.6255 6.14994 12.9084L7.96708 16.1441H7.97137Z" fill="white"/>
</g>
<defs>
<linearGradient id="paint0_linear_31_14276" x1="4.46571" y1="4.16143" x2="29.2071" y2="32.58" gradientUnits="userSpaceOnUse">
<stop stop-color="#1A1E21"/>
<stop offset="1" stop-color="#06060A"/>
</linearGradient>
<clipPath id="clip0_31_14276">
<rect width="24" height="24" fill="white"/>
</clipPath>
</defs>
</svg>

<svg xmlns="http://www.w3.org/2000/svg" width="24" height="24" fill="none" viewBox="0 0 24 24"><g clip-path="url(#a)"><path fill="url(#b)" d="M0 0h24v24H0z"/><path fill="#fff" d="M12.557 14.074a.33.33 0 0 0 .013-.347L8.79 7.016a.3.3 0 0 0-.257-.16H5.876c-.236 0-.382.27-.262.485l4.963 8.94a.298.298 0 0 0 .514.022zm6.857 2.64c.232 0 .377-.27.257-.48l-5.1-9.218a.3.3 0 0 0-.265-.16h-2.649c-.231 0-.377.27-.257.485l5.117 9.214a.3.3 0 0 0 .257.16zm-11.443-.57c.116.214-.03.57-.265.57H5.889c-.172 0-.318-.231-.318-.407V13.07c0-.325.42-.445.579-.163l1.817 3.236z"/></g><defs><linearGradient id="b" x1="4.466" x2="29.207" y1="4.161" y2="32.58" gradientUnits="userSpaceOnUse"><stop stop-color="#1A1E21"/><stop offset="1" stop-color="#06060A"/></linearGradient><clipPath id="a"><path fill="#fff" d="M0 0h24v24H0z"/></clipPath></defs></svg>
